X:1
T:Benedictus
T:Benedictus
T:Giovanni Battista Casali
C:Giovanni Battista Casali
%%score [ 1 2 3 4 ]
L:1/8
M:4/4
K:G
V:1 treble nm="S."
V:2 treble nm="A."
V:3 treble-8 nm="T."
V:4 bass nm="B."
V:1
 B3 B c2 A A | B2 B B c2 d d | c3 c B2 d2 | d4 d2 d2- | d2 d4 ^c2 | d2 d2 B2 G2 | z2 d2 B2 B2 | %7
w: Be- ne- dic- tus, qui|ve- nit in no- mi- ne|Do- mi- ni. Ho-|san- na in|_ ex- cel-|sis, ho- san- na,|ho- san- na|
 ^c2 c2 d2 B2 | A4 B4 |] %9
w: in ex- cel- *|* sis.|
V:2
 G3 G E2 F F | G2 G G G2 G G | G2 F2 G4 | z2 G2 D2 F2 | G2 ^G2 A3 =G | F4 z2 D2 | D2 F2 G4 | %7
w: Be- ne- dic- tus, qui|ve- nit in no- mi- ne|Do- mi- ni.|Ho- san- na|in ex- cel- *|sis, ho-|san- na in|
 G4 F2 G2- | G2 F2 G4 |] %9
w: ex- cel- *|* * sis.|
V:3
 d3 d B2 d d | d2 d d e2 d d | e2 c2 d4 | z2 B2 A2 d2 | d2 d2 e4 | d4 z2 B2 | A2 A2 z2 d2 | %7
w: Be- ne- dic- tus, qui|ve- nit in no- mi- ne|Do- mi- ni.|Ho- san- na|in ex- cel-|sis, ho-|san- na, ho-|
 e2 e2 A2 d2 | d4 d4 |] %9
w: san- na in ex-|cel- sis.|
V:4
 G,3 G, A,2 D, D, | G,2 G, G, C2 B, B, | A,3 A, G,4 | z2 G,2 F,2 D,2 | G,2 B,2 A,4 | D,4 z2 G,2 | %6
w: Be- ne- dic- tus, qui|ve- nit in no- mi- ne|Do- mi- ni.|Ho- san- na|in ex- cel-|sis, ho-|
 F,2 D,2 G,4 | E,4 D,4- | D,4 G,,4 |] %9
w: san- na in|ex- cel-|* sis.|

